Assets/SettingsPanel/Export.svg

<?xml version="1.0" encoding="UTF-8"?>
<svg xmlns="http://www.w3.org/2000/svg" xmlns:xlink="http://www.w3.org/1999/xlink" width="32px" height="32px" viewBox="0 0 32 32" version="1.1">
<g id="surface1">
<path style=" stroke:none;fill-rule:nonzero;fill:rgb(0%,0%,0%);fill-opacity:1;" d="M 5.808594 2.414062 C 6.453125 2.398438 7.09375 2.375 7.734375 2.347656 C 8.144531 2.339844 8.554688 2.335938 8.972656 2.328125 C 9.535156 2.316406 9.535156 2.316406 10.105469 2.300781 C 11.316406 2.585938 11.460938 2.773438 12.230469 3.679688 C 13.164062 4.695312 13.753906 4.972656 15.132812 5.070312 C 15.785156 5.074219 16.4375 5.070312 17.089844 5.054688 C 17.4375 5.058594 17.785156 5.058594 18.144531 5.058594 C 19.25 5.0625 20.355469 5.054688 21.460938 5.039062 C 22.566406 5.035156 23.671875 5.03125 24.78125 5.035156 C 25.464844 5.035156 26.152344 5.03125 26.839844 5.019531 C 28.582031 5.015625 29.875 5.054688 31.359375 6.078125 C 32.074219 7.152344 32.085938 7.515625 32.097656 8.769531 C 32.101562 9.121094 32.109375 9.476562 32.113281 9.839844 C 32.117188 10.222656 32.117188 10.605469 32.117188 10.996094 C 32.121094 11.390625 32.125 11.78125 32.128906 12.1875 C 32.132812 13.019531 32.136719 13.847656 32.136719 14.679688 C 32.140625 15.953125 32.15625 17.222656 32.171875 18.496094 C 32.175781 19.304688 32.175781 20.109375 32.179688 20.917969 C 32.183594 21.296875 32.191406 21.679688 32.199219 22.070312 C 32.183594 24.707031 32.183594 24.707031 31.25 25.992188 C 29.941406 26.867188 28.996094 26.917969 27.460938 26.898438 C 27.113281 26.898438 26.765625 26.894531 26.40625 26.890625 C 26.007812 26.886719 26.007812 26.886719 25.601562 26.878906 C 25.496094 26.351562 25.390625 25.824219 25.28125 25.28125 C 25.546875 25.265625 25.8125 25.25 26.085938 25.234375 C 26.609375 25.195312 26.609375 25.195312 27.140625 25.160156 C 27.484375 25.136719 27.832031 25.117188 28.1875 25.09375 C 29.179688 25.019531 29.179688 25.019531 30.078125 24.320312 C 30.226562 23.589844 30.226562 23.589844 30.203125 22.730469 C 30.207031 22.234375 30.207031 22.234375 30.214844 21.726562 C 30.210938 21.367188 30.210938 21.007812 30.207031 20.640625 C 30.207031 20.273438 30.210938 19.90625 30.210938 19.527344 C 30.210938 18.75 30.210938 17.972656 30.207031 17.199219 C 30.199219 16.003906 30.207031 14.8125 30.210938 13.621094 C 30.210938 12.867188 30.210938 12.113281 30.207031 11.359375 C 30.210938 11 30.210938 10.644531 30.214844 10.273438 C 30.210938 9.941406 30.207031 9.609375 30.203125 9.269531 C 30.203125 8.832031 30.203125 8.832031 30.203125 8.382812 C 30.160156 8.152344 30.121094 7.917969 30.078125 7.679688 C 29.035156 6.984375 28.753906 6.960938 27.546875 6.972656 C 27.230469 6.972656 26.910156 6.976562 26.582031 6.976562 C 26.0625 6.980469 26.0625 6.980469 25.535156 6.984375 C 24.804688 6.984375 24.074219 6.980469 23.34375 6.980469 C 22.191406 6.976562 21.039062 6.980469 19.890625 6.992188 C 18.777344 7 17.667969 6.992188 16.554688 6.984375 C 16.042969 6.996094 16.042969 6.996094 15.515625 7.007812 C 13.132812 6.976562 13.132812 6.976562 12.136719 6.210938 C 11.765625 5.8125 11.402344 5.402344 11.046875 4.984375 C 10.554688 4.390625 10.554688 4.390625 9.582031 4.214844 C 9.101562 4.226562 9.101562 4.226562 8.613281 4.238281 C 8.261719 4.242188 7.910156 4.246094 7.550781 4.25 C 7.191406 4.269531 6.832031 4.285156 6.460938 4.300781 C 6.09375 4.304688 5.726562 4.308594 5.351562 4.3125 C 3.453125 4.234375 3.453125 4.234375 1.921875 5.121094 C 1.820312 5.957031 1.820312 5.957031 1.832031 6.945312 C 1.828125 7.328125 1.824219 7.710938 1.824219 8.101562 C 1.824219 8.519531 1.824219 8.933594 1.824219 9.359375 C 1.824219 9.789062 1.820312 10.214844 1.820312 10.644531 C 1.816406 11.542969 1.816406 12.4375 1.820312 13.335938 C 1.820312 14.488281 1.816406 15.640625 1.808594 16.789062 C 1.804688 17.675781 1.804688 18.558594 1.804688 19.441406 C 1.804688 20.074219 1.800781 20.707031 1.792969 21.335938 C 1.796875 21.71875 1.796875 22.101562 1.800781 22.496094 C 1.800781 22.832031 1.800781 23.171875 1.800781 23.519531 C 1.839844 23.78125 1.878906 24.046875 1.921875 24.320312 C 3.007812 25.046875 3.574219 25.078125 4.859375 25.160156 C 5.207031 25.183594 5.554688 25.207031 5.914062 25.234375 C 6.179688 25.25 6.445312 25.265625 6.71875 25.28125 C 6.613281 25.808594 6.507812 26.335938 6.398438 26.878906 C 2.246094 27.0625 2.246094 27.0625 0.640625 25.921875 C -0.109375 24.796875 -0.0820312 24.328125 -0.09375 22.996094 C -0.0976562 22.390625 -0.0976562 22.390625 -0.105469 21.769531 C -0.105469 21.328125 -0.105469 20.886719 -0.109375 20.441406 C -0.109375 19.988281 -0.113281 19.535156 -0.113281 19.082031 C -0.117188 18.128906 -0.117188 17.175781 -0.117188 16.226562 C -0.117188 15.007812 -0.128906 13.789062 -0.136719 12.574219 C -0.144531 11.632812 -0.148438 10.695312 -0.144531 9.757812 C -0.148438 9.308594 -0.148438 8.863281 -0.15625 8.414062 C -0.160156 7.785156 -0.160156 7.15625 -0.15625 6.527344 C -0.15625 6.167969 -0.15625 5.8125 -0.160156 5.445312 C 0.0351562 4.261719 0.457031 3.730469 1.28125 2.878906 C 2.621094 2.210938 4.335938 2.433594 5.808594 2.414062 Z M 5.808594 2.414062 "/>
<path style=" stroke:none;fill-rule:nonzero;fill:rgb(0%,0%,0%);fill-opacity:1;" d="M 16.421875 13.332031 C 17.402344 13.820312 18.058594 14.378906 18.839844 15.140625 C 19.097656 15.382812 19.351562 15.625 19.617188 15.875 C 20.160156 16.640625 20.160156 16.640625 20.082031 17.535156 C 20.003906 17.765625 19.921875 18 19.839844 18.238281 C 18.492188 18.046875 18.378906 17.738281 17.28125 16.640625 C 17.175781 19.386719 17.070312 22.132812 16.960938 24.960938 C 16.539062 25.171875 16.113281 25.382812 15.679688 25.601562 C 14.824219 24.742188 14.941406 24.273438 14.90625 23.078125 C 14.894531 22.703125 14.882812 22.332031 14.871094 21.945312 C 14.859375 21.554688 14.851562 21.164062 14.839844 20.761719 C 14.828125 20.367188 14.816406 19.972656 14.800781 19.566406 C 14.773438 18.589844 14.746094 17.617188 14.71875 16.640625 C 14.472656 16.90625 14.222656 17.171875 13.964844 17.445312 C 13.546875 17.839844 13.546875 17.839844 13.121094 18.238281 C 12.378906 18.179688 12.378906 18.179688 11.839844 17.921875 C 11.988281 16.441406 12.519531 15.8125 13.578125 14.800781 C 13.835938 14.550781 14.09375 14.300781 14.359375 14.046875 C 15.46875 13.058594 15.46875 13.058594 16.421875 13.332031 Z M 16.421875 13.332031 "/>
<path style=" stroke:none;fill-rule:nonzero;fill:rgb(0%,0%,0%);fill-opacity:1;" d="M 9.28125 24 C 10.070312 24.160156 10.070312 24.160156 10.878906 24.320312 C 10.984375 25.375 11.089844 26.433594 11.199219 27.519531 C 14.367188 27.519531 17.535156 27.519531 20.800781 27.519531 C 20.90625 26.464844 21.011719 25.40625 21.121094 24.320312 C 21.648438 24.214844 22.175781 24.109375 22.71875 24 C 22.746094 24.726562 22.765625 25.453125 22.78125 26.179688 C 22.796875 26.785156 22.796875 26.785156 22.8125 27.40625 C 22.71875 28.480469 22.71875 28.480469 22.394531 29.019531 C 21.394531 29.679688 20.339844 29.578125 19.179688 29.566406 C 18.800781 29.570312 18.800781 29.570312 18.417969 29.570312 C 17.882812 29.570312 17.351562 29.570312 16.820312 29.566406 C 16.003906 29.558594 15.1875 29.566406 14.371094 29.570312 C 13.855469 29.570312 13.335938 29.570312 12.820312 29.566406 C 12.453125 29.570312 12.453125 29.570312 12.082031 29.574219 C 10.40625 29.550781 10.40625 29.550781 9.605469 29.019531 C 9.058594 28.109375 9.191406 27.21875 9.21875 26.179688 C 9.230469 25.773438 9.238281 25.367188 9.246094 24.945312 C 9.257812 24.632812 9.269531 24.320312 9.28125 24 Z M 9.28125 24 "/>
</g>
</svg>

<svg xmlns="http://www.w3.org/2000/svg" width="32" height="32" viewBox="0 0 32 32"><path d="M5.809 2.414q.966-.025 1.925-.066c.41-.008.82-.012 1.239-.02.562-.012.562-.012 1.132-.027 1.211.285 1.356.472 2.125 1.379.934 1.015 1.524 1.293 2.903 1.39q.978.007 1.957-.015a188 188 0 0 0 4.371-.016c1.105-.004 2.21-.008 3.32-.004q1.027 0 2.059-.015c1.742-.004 3.035.035 4.52 1.058.714 1.074.726 1.438.738 2.692l.015 1.07c.004.383.004.765.004 1.156l.012 1.191c.004.833.008 1.66.008 2.493.004 1.273.02 2.543.035 3.816.004.809.004 1.613.008 2.422q.006.568.02 1.152c-.016 2.637-.016 2.637-.95 3.922-1.309.875-2.254.926-3.79.906-.347 0-.694-.003-1.054-.007-.398-.004-.398-.004-.804-.012l-.32-1.598.804-.047c.523-.039.523-.039 1.055-.074l1.047-.066c.992-.074.992-.074 1.89-.774.149-.73.149-.73.125-1.59.004-.496.004-.496.012-1.003l-.008-1.086c0-.368.004-.735.004-1.114q.001-1.166-.004-2.328c-.008-1.195 0-2.387.004-3.578q.001-1.131-.004-2.262c.004-.359.004-.714.008-1.086l-.012-1.003v-.887l-.125-.703c-1.043-.696-1.324-.72-2.531-.707l-.965.004-1.047.007-2.191-.004q-1.73-.005-3.453.012c-1.114.008-2.223 0-3.336-.008l-1.04.024c-2.382-.031-2.382-.031-3.378-.797a36 36 0 0 1-1.09-1.227c-.492-.593-.492-.593-1.465-.77-.48.013-.48.013-.969.024l-1.062.012c-.36.02-.719.035-1.09.05l-1.11.013c-1.898-.079-1.898-.079-3.43.808-.1.836-.1.836-.089 1.824q-.007.572-.008 1.157v1.257l-.004 1.286q-.006 1.346 0 2.69 0 1.73-.011 3.454-.005 1.33-.004 2.652 0 .95-.012 1.895c.004.383.004.766.008 1.16v1.024l.12.8c1.087.727 1.653.758 2.938.84.348.024.696.047 1.055.074l.805.047-.32 1.598c-4.153.183-4.153.183-5.758-.957-.75-1.125-.723-1.594-.735-2.926-.004-.605-.004-.605-.011-1.226q.001-.662-.004-1.329c0-.453-.004-.906-.004-1.359q-.005-1.43-.004-2.855c0-1.22-.012-2.438-.02-3.653q-.012-1.411-.008-2.816c-.003-.45-.003-.895-.011-1.344q-.006-.943 0-1.887c0-.359 0-.715-.004-1.082C.035 4.262.457 3.73 1.28 2.88c1.34-.668 3.055-.445 4.528-.465m0 0"/><path d="M16.422 13.332c.98.488 1.637 1.047 2.418 1.809.258.242.512.484.777.734.543.766.543.766.465 1.66l-.242.703c-1.348-.191-1.461-.5-2.559-1.597-.105 2.746-.21 5.492-.32 8.32q-.632.314-1.281.64c-.856-.859-.739-1.328-.774-2.523l-.035-1.133c-.012-.39-.02-.78-.031-1.183-.012-.395-.024-.79-.04-1.196l-.081-2.925c-.246.265-.496.53-.754.804-.418.395-.418.395-.844.793-.742-.058-.742-.058-1.281-.316.148-1.48.68-2.11 1.738-3.121q.385-.374.781-.754c1.11-.988 1.11-.988 2.063-.715m0 0"/><path d="M9.281 24c.79.16.79.16 1.598.32.105 1.055.21 2.114.32 3.2h9.602c.105-1.055.21-2.114.32-3.2.527-.105 1.055-.21 1.598-.32q.04 1.09.062 2.18l.032 1.226c-.094 1.074-.094 1.074-.418 1.614-1 .66-2.055.558-3.215.546-.38.004-.38.004-.762.004q-.801.001-1.598-.004c-.816-.007-1.633 0-2.449.004q-.776.001-1.55-.004l-.739.008c-1.676-.023-1.676-.023-2.477-.554-.546-.91-.414-1.801-.386-2.84.011-.407.02-.813.027-1.235zm0 0"/></svg>
